src/24x24/places/folder-gruvbox-original-orange-steam.svg

<?xml version="1.0" encoding="UTF-8"?>
<svg width="24" height="24" version="1" xmlns="http://www.w3.org/2000/svg">
 <rect x="2" y="9.5" width="20" height="12" rx="1" ry="1" opacity=".2"/>
 <path d="m2 17c0 0.554 0.446 1 1 1h18c0.554 0 1-0.446 1-1v-11c0-0.554-0.446-1-1-1h-9c-1.5 0-2-2-3.5-2h-5.5c-0.554 0-1 0.446-1 1" fill="#af3a03"/>
 <rect x="2" y="8.5" width="20" height="12" rx="1" ry="1" opacity=".2"/>
 <rect x="4" y="7" width="16" height="8" rx="1" ry="1" fill="#F1D8AF"/>
 <rect x="2" y="9" width="20" height="12" rx="1" ry="1" fill="#fe8019"/>
 <path d="m3 3c-0.554 0-1 0.446-1 1v0.5c0-0.554 0.446-1 1-1h5.5c1.5 0 2 2 3.5 2h9c0.554 0 1 0.446 1 1v-0.5c0-0.554-0.446-1-1-1h-9c-1.5 0-2-2-3.5-2z" fill="#F1D8AF" opacity=".1"/>
 <path d="m5 15.255 3.0507 1.761c-0.0326 0.159-0.0496 0.321-0.0508 0.484 0 1.381 1.1193 2.5 2.5001 2.5 1.381 0 2.5-1.119 2.5-2.5-1e-3 -0.105-8e-3 -0.21-0.022-0.314l2.598-2.219c0.14 0.021 0.282 0.032 0.424 0.033 1.657 0 3-1.343 3-3s-1.343-3-3-3c-1.566 4e-4 -2.868 1.205-2.99 2.766l-2.098 3.269c-0.136-0.023-0.274-0.035-0.412-0.035-0.459 1e-3 -0.9094 0.129-1.3009 0.369l-4.1991-2.424m11-2.945c1.105 0 2 0.895 2 2s-0.895 2-2 2-2-0.895-2-2 0.895-2 2-2zm0 1c-0.552 0-1 0.448-1 1s0.448 1 1 1 1-0.448 1-1-0.448-1-1-1zm-5.539 5h0.039c0.828 0 1.5 0.672 1.5 1.5s-0.672 1.5-1.5 1.5c-0.8026 0-1.4629-0.632-1.4982-1.434l0.4981 0.288c0.4955 0.286 1.1171 0.13 1.3941-0.35s0.101-1.097-0.394-1.383l-0.188-0.107c0.049-7e-3 0.099-0.012 0.149-0.014z" fill="#46352B"/>
</svg>

<svg xmlns="http://www.w3.org/2000/svg" width="24" height="24" version="1">
 <rect style="opacity:0.2" width="20" height="12" x="2" y="9.5" rx="1" ry="1"/>
 <path style="fill:#af3a03" d="M 2,17 C 2,17.554 2.446,18 3,18 H 21 C 21.554,18 22,17.554 22,17 V 6 C 22,5.446 21.554,5 21,5 H 12 C 10.5,5 10,3 8.5,3 H 3 C 2.446,3 2,3.446 2,4"/>
 <rect style="opacity:0.2" width="20" height="12" x="2" y="8.5" rx="1" ry="1"/>
 <rect style="fill:#F1D8AF" width="16" height="8" x="4" y="7" rx="1" ry="1"/>
 <rect style="fill:#fe8019" width="20" height="12" x="2" y="9" rx="1" ry="1"/>
 <path style="opacity:0.1;fill:#F1D8AF" d="M 3,3 C 2.446,3 2,3.446 2,4 V 4.5 C 2,3.946 2.446,3.5 3,3.5 H 8.5 C 10,3.5 10.5,5.5 12,5.5 H 21 C 21.554,5.5 22,5.946 22,6.5 V 6 C 22,5.446 21.554,5 21,5 H 12 C 10.5,5 10,3 8.5,3 Z"/>
 <path style="fill:#46352B" d="M 5,15.255 8.0507,17.016 C 8.0181,17.175 8.0011,17.337 7.9999,17.5 7.9999,18.881 9.1192,20 10.5,20 11.881,20 13,18.881 13,17.5 12.999,17.395 12.992,17.29 12.978,17.186 L 15.576,14.967 C 15.716,14.988 15.858,14.999 16,15 17.657,15 19,13.657 19,12 19,10.343 17.657,9 16,9 14.434,9.0004 13.132,10.205 13.01,11.766 L 10.912,15.035 C 10.776,15.012 10.638,15 10.5,15 10.041,15.001 9.5906,15.129 9.1991,15.369 L 5,12.945 M 16,10 C 17.105,10 18,10.895 18,12 18,13.105 17.105,14 16,14 14.895,14 14,13.105 14,12 14,10.895 14.895,10 16,10 Z M 16,11 C 15.448,11 15,11.448 15,12 15,12.552 15.448,13 16,13 16.552,13 17,12.552 17,12 17,11.448 16.552,11 16,11 Z M 10.461,16 C 10.474,16 10.487,16 10.5,16 11.328,16 12,16.672 12,17.5 12,18.328 11.328,19 10.5,19 9.6974,19 9.0371,18.368 9.0018,17.566 L 9.4999,17.854 C 9.9954,18.14 10.617,17.984 10.894,17.504 11.171,17.024 10.995,16.407 10.5,16.121 L 10.312,16.014 C 10.361,16.007 10.411,16.002 10.461,16 Z"/>
</svg>
